!!!!SEGMENT: pl-kk--kk-i-315--013_palestrina-giovanni-pierluigi-da--laeva-ejus.krn
!!!cenid: 16xx:1109
!!!COM: Palestrina, Giovanni Pierluigi da
!!!COM-rismid: pe1904
!!!CDT: ~1525-1594/02/02
!!!CNT: Italian
!!!OTL: Laeva ejus
!!!PDT:
!!!AGN: Sacred
!!!SMS-siglum: PL-Kk
!!!SMS-shelfmark: Kk.I.315
!!!SMS-shelfwork: 013 W
!!!SMS-variant:
!!!SMS-altvar:
!!!NIFC-rismid: 1001147267
!!!system-decoration: [(s1)]
**kern	**text
*part1	*part1
*staff1	*staff1
*Ivox	*
*I"Canto	*
*I'C.	*
*clefC2	*
*k[]	*
*C:	*
*M2/1	*
*met(C|)	*
=1	=1
!LO:TX:t=P:problem:all\middle or left:global	!
!LO:TX:t=P:problem:w źródle inicjał L na początku pięciolinii; Po inicjale połączenie [szlaczek] z 'eva'	!
!LO:TX:a:Bi:t=13:rj	!
0r	.
=2-	=2-
1r	.
!LO:SIC:l:v:s=-Lae-	!
1g	Le-
=3-	=3-
1g	-va
1a	e-
=4-	=4-
1g	-jus
2rc	.
2d/	sub
=5-	=5-
2.g\	ca-
4g\	-pi-
!LO:TX:a:t=P:w źródle pochylona kreseczka [oddech lub rozdzielenie słów]:problem:global	!
2f,<\	-te
4d/	me-
!LO:SIC:v:t=custos f	!
4e/	.
!LO:PB:g=original	!
=6-	=6-
4f\	.
4g\	.
2.a\	.
4g\	.
1g\	.
=7-	=7-
.	.
2f\	.
0.g	-o
=8-	=8-
.	.
=9-	=9-
2r	.
2g\	le-
2e/	-va
4d/	.
4c/	.
=10-	=10-
1d	e-
1e	.
=11-	=11-
!LO:TX:t=P:problem:kreska pseudotaktowa	!
1c	-ius
!LO:TX:a:Bi:t=3	!
0r	.
=12-	=12-
.	.
1r	.
=13-	=13-
2rc	.
!LO:TX:t=P:problem:kreska pseudotaktowa	!
2d/	sub
!LO:LB:g=original	!
2.g\	ca-
4g\	-pi-
=14-	=14-
2c,</	-te
2d/	me-
2e/	.
4d/	.
4c/	.
=15-	=15-
1d	-o
0r	.
=16-	=16-
.	.
2rc	.
2a\	et
=17-	=17-
2.f#X\	dex-
4g\	-te-
2e/	-ra
2f#X\	il-
=18-	=18-
1g	-li-
2a,<\	-us
!LO:LB:g=original	!
2d/	et
=19-	=19-
2.g\	dex-
4e/	-te-
2f#X,<\	-ra
2g\	il-
=20-	=20-
1e	-li-
2d,</	-us
1g\	il-
=21-	=21-
.	.
2fny\	-li-
2g,<\	-us
2b\	am-
=22-	=22-
2a\	-ple-
2.g\	-xa-
4g\	-li-
2f#X\	-tur
!LO:LB:g=original	!
=23-	=23-
00g	me
=24-	=24-
.	.
=25-	=25-
0r	.
=26-	=26-
1rb	.
2rc	.
2a\	ad-
=27-	=27-
2g\	-iu-
2g\	-ro
1f#X	vos
=28-	=28-
1rb	.
2re	.
1a\	Fi-
=29-	=29-
.	.
2a\	-li-
2cc,<\	-e
2b\	Je-
=30-	=30-
2a\	-ru-
2g\	-sa-
1a	-lem
!LO:LB:g=original	!
=31-	=31-
2r	.
1g	Fi-
2g\	-li-
=32-	=32-
2a\	-e
2a\	Je-
2a\	-ru-
2g\	-sa-
=33-	=33-
1a	-lem
2r	.
2a\	per
=34-	=34-
2.b\	ca-
4b\	-pre-
1cc,>	-as
=35-	=35-
1cc	cer-
2a\	-vo-
1fny\	-sq(ue)
=36-	=36-
.	.
!LO:LB:g=original	!
2e/	cam-
1d	-po-
=37-	=37-
2c,</	-rum
2c/	per
2.cc\	ca-
4cc\	-pre-
=38-	=38-
1a,>	-as
1b	cer-
=39-	=39-
2b\	-vos-
1cc	-que
4b\	.
4a\	.
=40-	=40-
2g,<\	.
!LO:SIC:v:t=custos a	!
2g\	cam-
!LO:LB:g=original	!
1a	-po-
=41-	=41-
1b	-rum
0r	.
=42-	=42-
.	.
2r	.
2a\	ne
=43-	=43-
2a\	sus-
2a\	-ci-
1g	-te-
=44-	=44-
!LO:TX:t=P:problem:kreska pseudotaktowa	!
1g	-tis
0r	.
=45-	=45-
.	.
1r	.
=46-	=46-
1cc	ne-
2b,>\	-que
2g\	e-
=47-	=47-
2a\	-vi-
2b\	-gi-
!LO:LB:g=original	!
2.cc\	-la-
4b,>\	-te
=48-	=48-
2a\	fa-
2g\	-ci-
1a	-ta-
=49-	=49-
2b,>\	-tis
2.cc\	Di-
8b\L	.
8a\J	.
2b\	.
=50-	=50-
0cc	-lec-
=51-	=51-
2a,>\	-tam
1a	quo-
2a\	-a-
=52-	=52-
2cc\	-dus-
2b,>\	-que
1cc	I-
!LO:LB:g=original	!
=53-	=53-
2a,<\	-psa
2.g\	ve-
8f\L	.
8e\J	.
2f\	.
=54-	=54-
1g	-lit
2rc	.
1cc\	quo-
=55-	=55-
.	.
2cc\	-a-
2a\	-dus-
2a,>\	-que
=56-	=56-
2g\	ip-
2f\	-sa
1g	ve-
=57-	=57-
!LO:TX:t=P:problem:kreska pseudotaktowa	!
1e	-lit
!LO:PB:g=original	!
2r	.
1g\	quo-
=58-	=58-
.	.
2g\	-a-
2g\	-dus-
2d,</	-que
=59-	=59-
2.e/	ip-
4f\	-sa
1g	ve-
=60-	=60-
2f#X\	.
1g	.
2f#X\	.
=61-	=61-
!LO:N:vis=00.	!
0g	-lit.
==	==
*-	*-
!!title: @{OTL};
!!!RDF**kern: > = above
!!!RDF**kern: < = below
!!!RDF**kern: l = terminal long
!!!EED: Wojciech Jakubiak-Danek
!!!EST: 2021-03-30
!!!URL-scan: http://repozytorium.nifc.pl/skany/pl-kk-nut--i-315
!!!ONB-nifc: UWAGA: motety w zbiorze: 1. Osculetur me, 2. Trahe me post curremus, 3. Nigra sum sed formosa, 4. Vineam meam, 5. Si ignoras te o pulchra, 6. Pulchrae sunt genae tuae, 7. Fasciculus myrrhae, 8. Ecce tu pulcher es, 9. Tota pulchra es amica mea, 10. Vulnerasti cor meum, 11. Sicut lilium inter spinas, 12. Introduxit me rex, 13. Laeva ejus, 14. Vox dilecti mei
!!!AIN: 1 vox
!!!ENC: Berenika Jozajtis
!!!END: 2021-03-22
